src/assets/svg/icons/css-icon.svg

<svg width="80px" height="80px" viewBox="0 0 89 100" fill="none" xmlns="http://www.w3.org/2000/svg">
<path d="M88.1919 0L80.159 89.9895L44.0505 100L8.04148 90.0036L0.0170288 0H88.1919Z" fill="#264DE4"/>
<path d="M73.2819 84.2593L80.1466 7.35913H44.1045V92.3484L73.2819 84.2593Z" fill="#2965F1"/>
<path d="M18.413 40.7402L19.4023 51.7787H44.1045V40.7402H18.413Z" fill="#EBEBEB"/>
<path d="M44.1045 18.3977H44.0663H16.425L17.4284 29.4364H44.1045V18.3977Z" fill="#EBEBEB"/>
<path d="M44.1045 80.8931V69.4083L44.0561 69.4212L31.7624 66.1016L30.9765 57.2979H25.0027H19.8955L21.442 74.63L44.0537 80.9072L44.1045 80.8931Z" fill="#EBEBEB"/>
<path d="M57.6591 51.7785L56.3778 66.0947L44.0663 69.4177V80.9019L66.696 74.6301L66.8621 72.7652L69.456 43.7042L69.7253 40.7401L71.7181 18.3977H44.0663V29.4364H59.6208L58.6164 40.7401H44.0663V51.7785H57.6591Z" fill="white"/>
</svg>

<svg xmlns="http://www.w3.org/2000/svg" width="80" height="80" viewBox="0 0 89 100" fill="none" xmlns:v="https://vecta.io/nano"><path d="M88.192 0l-8.033 89.99L44.051 100 8.041 90.004.017 0h88.175z" fill="#264de4"/><path d="M73.282 84.259l6.865-76.9H44.105v84.989l29.177-8.089z" fill="#2965f1"/><path d="M18.413 40.74l.989 11.039h24.702V40.74H18.413zm25.692-22.342h-.038-27.641l1.003 11.039h26.676V18.398zm0 62.495V69.408l-.048.013-12.294-3.32-.786-8.804h-5.974-5.107l1.547 17.332 22.612 6.277.051-.014z" fill="#ebebeb"/><path d="M57.659 51.779l-1.281 14.316-12.312 3.323v11.484l22.63-6.272.166-1.865 2.594-29.061.269-2.964 1.993-22.342H44.066v11.039h15.555L58.616 40.74h-14.55v11.038h13.593z" fill="#fff"/></svg>
